svg/regex.svg

<svg xmlns="http://www.w3.org/2000/svg" viewBox="0 0 24 24"><path d="M16 16.92c-.33.05-.66.08-1 .08s-.67-.03-1-.08v-3.51l-2.5 2.48c-.5-.39-1-.89-1.39-1.39l2.48-2.5H9.08c-.05-.33-.08-.66-.08-1s.03-.67.08-1h3.51l-2.48-2.5c.19-.25.39-.5.65-.74.24-.26.49-.46.74-.65L14 8.59V5.08c.33-.05.66-.08 1-.08s.67.03 1 .08v3.51l2.5-2.48c.5.39 1 .89 1.39 1.39L17.41 10h3.51c.05.33.08.66.08 1s-.03.67-.08 1h-3.51l2.48 2.5c-.19.25-.39.5-.65.74-.24.26-.49.46-.74.65L16 13.41zM5 19a2 2 0 0 1 2-2 2 2 0 0 1 2 2 2 2 0 0 1-2 2 2 2 0 0 1-2-2"/></svg>

<?xml version="1.0" encoding="UTF-8"?><!DOCTYPE svg PUBLIC "-//W3C//DTD SVG 1.1//EN" "http://www.w3.org/Graphics/SVG/1.1/DTD/svg11.dtd"><svg xmlns="http://www.w3.org/2000/svg" xmlns:xlink="http://www.w3.org/1999/xlink" version="1.1" id="mdi-regex" width="24" height="24" viewBox="0 0 24 24"><path d="M16,16.92C15.67,16.97 15.34,17 15,17C14.66,17 14.33,16.97 14,16.92V13.41L11.5,15.89C11,15.5 10.5,15 10.11,14.5L12.59,12H9.08C9.03,11.67 9,11.34 9,11C9,10.66 9.03,10.33 9.08,10H12.59L10.11,7.5C10.3,7.25 10.5,7 10.76,6.76V6.76C11,6.5 11.25,6.3 11.5,6.11L14,8.59V5.08C14.33,5.03 14.66,5 15,5C15.34,5 15.67,5.03 16,5.08V8.59L18.5,6.11C19,6.5 19.5,7 19.89,7.5L17.41,10H20.92C20.97,10.33 21,10.66 21,11C21,11.34 20.97,11.67 20.92,12H17.41L19.89,14.5C19.7,14.75 19.5,15 19.24,15.24V15.24C19,15.5 18.75,15.7 18.5,15.89L16,13.41V16.92H16V16.92M5,19A2,2 0 0,1 7,17A2,2 0 0,1 9,19A2,2 0 0,1 7,21A2,2 0 0,1 5,19H5Z" /></svg>
